X:38
T:Ballyvourney Polka, The
T:Salmon Tailing Up the River, The
R:polka
Z:id:hn-polka-38
M:2/4
L:1/8
K:Edor
EF/G/ FE|FD F/G/A|EF/G/ FE|F2 A2|
EF/G/ FE|FD F/G/A|B>A B/c/d|1 e2 e2:|2 e2 eB/c/||
|:dA FA|DA FA|B>A GB|A2 AB/c/|dA FA|DA FA|B>A B/c/d|1 e2 f>e:|2 e2 e2||
<end>
<start>
